X:2
T:Ena O'Brien
R:reel
C:Chris Langan
B:Move Your Finger's, The Life and Music of Chris Langan
S:http://www.cranfordpub.com/books/chris_langan_book.htm
Q:333
L:1/8
M:C|
K:D
DE|(3FFF FE F2 dB|AFEF DFEF|DF (3FFF F2 DF|AFDF E2 dB|
AF (3FFF F2 AB|dfef dBBc|AF (3FFF DF (3FFF|1EDB,C D2:|2edBc d2||
|:zf|af (3fgf df (3fgf|efed BcdB|AF (3FFF DF (3FFF|DFAF E2 FE|
DF (3FFF G3 B|AFEF DFEF|AFAB ABdf|edBc d2:|
|:de|(3fgf fd edBd|FAdA BAFA|DEFA BAdf|afdf e2 fe|
d3 A BA (3FGA|DFdA BAFA|dABA FAdf|edBc d2:|
